X:1
T:Contrapunctus VIII a 3 (A = 415 Hz)
T:BWV 1080 The Art of Fugue
T:J. S. Bach
%%score 1 { 2 | 3 }
L:1/8
Q:1/4=72
M:2/4
K:E
V:1 alto1 nm="Harp"
V:2 alto nm="Harp"
V:3 bass 
V:1
"^Adagio" z4 | z4 | z4 | z4 | z4 | z4 | z4 | z4 | z4 | z4 | z2 c2 | Be ^A=A | Gc F2 | EF G/F/G | %14
 Cc BA | Be dc | ^B2 z/ B/c/d/ | G/c/B/A/ B/G/A/F/ | G4- | G/G/F/E/ F/D/E/c/ | %20
 F/4E/4F/4E/4D z/ ^B/c- | c/^A/G/F/ G/B/A- | A/=G/^E/D/ E/^G/=G/^A/ | G/B/^A/c/ B2- | %24
 B/=d/c/B/ c/A/B/G/ | A4- | A/c/B/A/ B/G/A/F/ | Gc =GF | EA D=D | CF ^B,=B,- | %30
 B,/B,/A,/G,/ A,/C/B,/=D/ | C/G/F/^E/ F/A/G/B/ | A2- A/F/G/E/ | F2 z ^B | c/F/E/F/ E/G/F/A/ | %35
 G/C/^B,/C/ C/E/D/F/ | E/B,/^A,/G,/ A,/C/^B,/D/ | C/E/D/F/ E/D/C/^B,/ |{^B,} C2 c2 | Be ^A=A | %40
 Gc F/4E/4F3/2 | EF G/F/G | C2 z =d- | d/^B/c/c/ c/^A/=B/B/ | B/G/A/A/ A/G/F/^E/ | F3 E- | %46
 E/F/E/D/ C/D/B,/C/ | D/B/A/G/ F/A/E/F/ | G/F/E/D/ C/D/B,/C/ | ^A,F GA | =Gd z2 | %51
 z/ d/c/B/ ^A/B/G/A/ | ^Bc d/c/d | GA/G/ F/E/F- | F/B,/C/D/ E/D/F/E/ | D2 z G- | %56
 G/C/D/E/ F/E/G/F/ | E2 z c- | cB- BA- | AG F2 | E/B/c/d/ e2 | dg c=c | Be A2 | GA B/A/B | %64
 E z z A- | A/G/^A/B/ c/B/c | F/^A/B/c/ d/e/f/f/ | f/d/e/e/ e/c/=d/d/ | =d/^B/c/c/ c/=B/A/G/ | %69
 A/E/A- AG | A/e/=d/c/ B/c/A/B/ | cf- f^e | f/c/B/A/ G/A/F/G/ | A2 G2 | cF E2 | =D2 CD | ^B,C F2- | %77
 F/D/E/E/ EE | c>d ^Bc | ^AB z =A | =G^G z c | Be ^A=A | Gc F2 | ^EF G/F/G | C/D/^E/F/ G/F/A/G/ | %85
 B/^A/c/^B/ d/c/e/d/ | f/c/^B/d/ Gf | eg c/d/e/e/ | f/d/e/e/ e/=d/e/e/ | c/^A/B/B/ B/G/=A/A/ | %90
 A/F/^B/B/ B/F/d/d/ | d/^B/c z/4 =B/4A/4G/4F/4e/4d/4c/4 | ^B2 z/ G/^A/=B/ | c/^B/d/c/ eA- | %94
 A/G/c/G/ =c/^c/^E/B/ | A/c/=d/f/ e/c/^d/^B/ | ^B/c/C cd | ^BB f2- | f/d/e/e/ e2- | e/d/g/g/ g=g | %100
 gc/^A/ BA | G z z2 | z b/g/ ^a/=g/^g/^e/ | =g/d/ z z2 | z d G^A | z B cd | z e dc | z B/^A/ Bc | %108
 d4- | d/G/B/=d/ c/A/B/G/ | A z/ f/ ^e=e | z/ =d/c/B/ cd- | d/c/^B/c/ ^d/^e/f/f/ | %113
 f/d/e/e/ e/c/=d/d/ | =d/^B/c/c/ c/^A/=B/B/ | B/G/A/A/ A/F/=G/G/ | =G/^E/F- F=E | F2 ^E/F/G- | %118
 GF/F/ F/D/E/E/ | =DG/G/ G/F/A/A/ | Gc/c/ c/^A/B/B/ | ^Ad ^e=g | g^a d=g | g2 z2 | %124
 z g/g/ g/e/f/f/ | f/d/e/e/ e/d/c/^B/ | c/e/d/c/ ^B/c/^A/B/ | c/G/A/F/ DF- | %128
 F/F/E/D/ ^E/c/=G/^A/- | A/^A/G/=G/ ^G/e/A/c/- | c/c/B/^A/ ^B/g/c/e/ | ^Ad gG | FB eE | %133
 D/d/c/B/ ^A/B/G/A/ | B/d/c/e/ dc- | cB ^A^B | c/G/F/E/ D/C/D | C/D/E/F/ G/F/A/G/ | %138
 A2 B/4^A/4B/4A/4B/4A/4G/4A/4 | B2 z2 | z/ e/d/c/ B/c/A/B/ | G/B/A/G/ F/G/E/F/ | G2 F2 | E2 D2 | %144
 C z z2 | z4 | z2 e2 | dg =dc | Be A2 | GA B/A/B | Ee- e/d/c/e/ | dg/=g/ ^g=d | df ^Bc | z d ef | %154
 z g fe | z d/c/ d^e | f/c/d/^e/ f/e/g/f/ | a/g/f/e/ =d/c/d/d/ | =d/^B/c/c/ c/^A/=B/B/ | %159
 B/G/A/A/ A/G/F/^E/ | F/A/G/F/ ^E/F/D/E/ | F/C/F- F/A/G/B/ | A4- | AG/F/ Gc- | c/B/^A/c/ ^B/c/d- | %165
 d/c/^B/d/ c/d/e- | e/d/c/e/ d/c/^B/^A/ | ^Be ^A/c/B/d/ | Gg/g/ g/^e/f/f/ | f/d/e/e/ e/c/d/d/ | %170
 dG CD | z E FG | z A GF | z E/D/ EF | G/F/^E/G/ Cc- | c/B/A/c/ FB- | B/A/G/B/ AA- | %177
 A/4B/4A/4G/4F/4G/4A/4B/4 =d/4e/4d/4c/4^B/4c/4^d/4e/4 | %178
 f/4g/4f/4e/4d/4e/4f/4g/4 a/g/4f/4e/4d/4c/4^B/4 | c3 ^B | cB A/f/f/^e/ | ^eg gf | ^Be ^A=A | %183
 Gc F2 | EF G/F/G | C4- | C/4^A,/4^B,/4C/4D/4E/4F/4D/4 C/4B,/4C/4B,/4C/4B,/4C/ | C2 z2 |] %188
V:2
 z2 C2 | B,E ^A,=A, | G,C F,/4E,/4F,3/2 | E,F, G,/F,/G, | C,C B,^A, | B,E DC | D2 z/ C/B,/^A,/ | %7
 B,2 z/ ^A,/G,/=G,/ | G,/B,/^A,/C/ =G,/E/D/C/ | B,/^A,/B,/D/ G/C/^B,/D/ | C/E/D/F/ E/B,/^A,/E/ | %11
 DB, CF | B,G, ^A,D | G,/B,/A,/C/ B,2- | B,/A,/G,/F,/ G,/E,/F,/D,/ | E,/B/A/G/ A/F/G/E/ | DA GF | %17
 ED, ^E,F,- | F,/F/E/D/ E/C/D/^B,/ | C4- | C^B, G2 | FB ^E=E | DG C2 | B,C D/C/D | G,^E, F,G,- | %25
 G,/G/F/^E/ F/D/=E/C/ | DE FD | EG z/ ^A,/^B,/D/ | G,E z/ F,/G,/B,/ | E,C z/ D,/^E,/F,/ | %30
 C,^E, F,G, | A,G, A,B, | C/E/D/C/ ^B,C | D/C/^B,/^A,/ B,D | G^B,, C,A, | D,G,- G,F, | %36
 B,,E,- E,D, | G, z z F, |{F,} E,2 z A- | A/=G/^G/G/ G/^E/F/F/ | G/D/E/E/ E/D/C/^B,/ | C3 B,- | %42
 B,/B,/A,/G,/ A,/C/B,/^A,/ | G, z F2 | EC =D2- | D/C/B,/A,/ G,/A,/F,/G,/ | ^A,B,- B,=A,- | %47
 A,/G,/F,/E,/ D,/E,/C,/D,/ | E, z G z | FB ^E=E | DG C/4B,/4C3/2 | B,C D/C/D | G,2 z F,- | %53
 F,/E,/F,/G,/ A,/G,/B,/A,/ | G,2 z C- | C/F,/G,/A,/ B,/A,/C/B,/ | A,2 z D- | D/^B,/C/D/ E/D/F/E/ | %58
 D2 C2 | B,E- ED | E2 z c- | c/^A/B/B/ B/G/=A/A/ | A/=G/^G/G/ G/F/E/D/ | E3 =D- | D/C/^D/E/ F/E/F | %65
 B,C/D/ E/D/E | D z z C | B,G AA, | G,E FA, | E,/E/=D/C/ B,/C/A,/B,/ | C z z2 | z A G2 | CF- F^E | %73
 F/C/F/F/ F/D/E/E/ | E/C/=D/D/ D/^B,/C/C/ | C/^A,/B,/B,/ B,/=A,/G,/F,/ | G,2 ^A,^B, | %77
 C/G,/C- C/^A,/B,/B,/ | B,/G,/A,/A,/ G,G | FB ^E=E | DG CA- | A/=G/^G/G/ G/^E/F/F/ | %82
 F/D/E/E/ E/=D/C/B,/ | C2 z B,- | B,A, B,C | F,^A, ^B,C | G, z z ^B | c z z B | A/A/A/F/ G/G/G/E/ | %89
 F/F/F/D/ FC/F/ | D z z F/F/ | F/D/E z F | G2 z2 | z G CD | z E FG | z A GF | z E/D/ EF | G2 ^A^B | %98
 cG- G/E/F/F/ | FD[K:alto1] z/ e/d/c/ | B/^A/G- G/G/-G/=G/ | G/D/G/=G/ ^G/B/^A/c/ | B/d/G cB | %103
 ^Ac/A/ c/G/A/=G/ | G>=G ^E=E- | E/C/D z G- | G/=G/c/G/ ^G/B/^A/E/ | D/=D/^D z2 | %108
[K:alto] z/ D/=G/^A/ ^G/^E/F/D/ | E^E F>E | F z/ c/ B/G/c/=G/ | F=G- G/F/^E/F/ | GA z A | Gc =GF | %114
 ^EA D=D | CF ^B,=B, | ^A,=A, G,2 | F,C/C/ C/A,/B,/B,/ | B,/G,/A,/A,/ G,C/C/ | C/A,/B,/B,/ A,F/F/ | %120
 F/D/E/E/ DG/G/ | G/=G/^A/^G/[K:alto1] B/^A/c/B/ | d/c/e/d/ c/B/^A/G/ | G2 z2 |[K:alto] z2 C2 | %125
 B,E ^A,=A, | G,C F,/4E,/4F,3/2 | E,F, G,/F,/G, | C,C B,^A, | B,E DC | DG FE- | %131
 E/=D/^D/D/ D/^B,/C/C/ | C/A,/B,/B,/ B,/A,/G,/=G,/ | G,3 =G, | G,/B,/A,/G,/ =G,/^G,/^E,/=G,/ | %135
 G,/D/G- GF- | F/E/D/C/ ^B,/C/^A,/B,/ | C z z ^E, | F,/G,/A,/B,/ C/B,/D/C/ | D/E/F/G/ A/G/B/A/ | %140
 B z z2 | z/ G/F/E/ D/E/C/D/ | E/B,/E- ED- | DC- C/^A,/^B,/D/ | G,/^A,/^B,/C/ D/C/E/D/ | %145
 F/^E/=G/^G/ ^A/G/B/A/ | c/B/^A/G/ A/B/A/c/ | c/^A/B/B/ B/=A/^A/A/ | ^A/=G/^G/G/ G/F/E/D/ | %149
 E/G/F/E/ D/E/C/D/ | E/G/B/A/ B z | z2 B2 | ^A[K:alto1]d =AG | FB E2 | DE F/E/F | B,B- B/A/G/B/ | %156
 AG F^E | F/E/=D/C/ B, z |[K:alto] z C F,G, | z A, B,C | z =D CB, | z A,/G,/ A,B, | %162
 C/=D/C/^B,/ C/E/^D/F/ | E/D/E- E/D/C/E/ | D/^E/F- F/=E/D/F/ | E/F/G- G/F/E/G/ | =G/^G/A- AG/=G/ | %167
 G/D/G/G/ G/^E/F/F/ | F/D/E/C/ ^A,/C/^B,/D/ | G,C/B,/ ^A,=A,- | A,/=G,/^G,/G,/ G,/^E,/F,/F,/ | %171
 F,/D,/E,/E,/ E,/D,/C,/^B,,/ | C,/E,/D,/C,/ ^B,,/C,/^A,,/B,,/ | C,/D,/E,/F,/ G,C | ^E,G, C^E | %175
 F>E D=D- | D/C/B,/=D/ CC- | CA,/A,/ A,F,/F,/ | F,A,/A,/ D, z | z/ E/E/D/ D/F/F/^E/ | %180
 ^E/G/G/F/ F=A | GB A/G/A- | A/=G/^G/G/ G/^E/F/F/ | F/D/E/E/ E/D/C/^B,/ | C/E/D/C/ ^B,/C/^A,/B,/ | %185
 C/A,/G,/F,/ G,/C/4B,/4A,/4G,/4F,/ | E,D,/C,/ D,/E,/F,- | F,^E, z2 |] %188
V:3
 z4 | z4 | z4 | z4 | z4 | z2 G,2 | F,B, ^E,=E, | D,G, C,/4B,,/4C,3/2 | B,,C, D,/C,/D, | %9
 G,,F, E,D, | E,A, G,=G, | A,2 z/ ^F,/E,/D,/ | E,2 z/ D,/C,/^B,,/ | C,2 z/ B,,/A,,/G,,/ | %14
 A,,2 B,,2 | E,,/G,,/F,,/E,,/ F,,/D,,/E,,/C,,/ | G,,/F,/E,/D,/ E,/C,/D,/^B,,/ | C,4 | ^B,,G, C,E, | %19
 A,,G,, A,,F,, | G,,/G,/F,/E,/ F,/D,/E,/C,/ | D,2 C,F, | ^B,,=B,, ^A,,D, | G,,2 z G,/F,/ | %24
 ^E,C, D,E, | F,,G,, A,,F,, | B,,C, D,B,, | F,,/F,/E,/D,/ E,/C,/D,/^B,,/ | %28
 C,/=D,/C,/B,,/ C,/A,,/B,,/G,,/ | A,,/B,,/A,,/G,,/ A,,/F,,/G,,/^E,,/ | %30
 G,,/4F,,/4G,,/4F,,/4G,,/4F,,/4G,,/4F,,/4 G,,/4F,,/4G,,/4F,,/4G,,/4F,,/4G,,/4F,,/4 | %31
 G,,/4F,,/4G,,/4F,,/4G,,/4F,,/4G,,/4F,,/4 G,,/4F,,/4G,,/4F,,/4G,,/4F,,/4G,,/4F,,/4 | %32
 G,,/4F,,/4G,,/F,,/E,,/ F,,/D,,/E,,/C,,/ | ^B,,,/A,,/G,,/F,,/ G,,/E,,/F,,/D,,/ | E,,G,, C,2 | %35
 B,,E, ^A,,=A,, | G,,C, F,,2 | E,,F,, G,,/F,,/G,, | C,,2 z2 | z4 | z4 | %41
 z/ A,/G,/F,/ ^E,/F,/D,/E,/ | F,C, F,2 | E,G, D,=D, | C,F, B,,/4A,,/4B,,3/2 | A,,B,, C,/B,,/C, | %46
 F,,2 z F, | B,,2 z B,, | E,,2 z E,- | E,/=D,/^D,/D,/ D,/^B,,/C,/C,/ | %50
 C,/^A,,/B,,/B,,/ B,,/A,,/G,,/=G,,/ | G,,2 z F,- | F,/E,/D,/C,/ ^B,,/C,/^A,,/B,,/ | C,2 z D, | %54
 E,E,,/F,,/ G,,^A,, | B,,A,, G,,^E, | G,,/E,/D,/C,/ ^B,,/C,/^A,,/B,,/ | C,/D,/E,/F,/ G,/F,/A,/G,/ | %58
 F,/E,/G,/F,/ E,/D,/F,/E,/ | D,/E,/F,/G,/ A,/G,/B,/A,/ | C,/D,/E,/F,/ G,/F,/A,/G,/ | B,,4- | %62
 B,,2 z ^B,, | C,/C/B,/A,/ G,/A,/F,/G,/ | A,/G,/F,/E,/ D,/E,/C,/D,/ | %65
 E,/D,/C,/B,,/ ^A,,/B,,/G,,/A,,/ | B,,/C,/D,/E,/ F,/E,/G,/F,/ | G,C F,=F, | E,A, =D, z | %69
 C,=D, E,/D,/E, | A,,A,- A,G, | A,/F,/G,/A,/ B,/A,/C/B,/ | A,=D B,C | F,=D, ^B,,C, | %74
 ^A,,B,, G,,=A,, | F,,=G,, ^E,,F,,- | F,,/D,,/E,,/E,,/ E,,/C,,/D,,/D,,/ | C,, z z2 | %78
 z F,- F,/D,/E,/E,/ | E,/=D,/^D,/D,/ D,/^B,,/C,/C,/ | C,/^A,,/B,,/B,,/ B,,/A,,/G,,/=G,,/ | %81
 G,,2 z C, | ^B,,=B,, ^A,,B,,- | B,,/A,,/G,,/F,,/ ^E,,/F,,/D,,/=E,,/ | F,, F,2 ^E, | F,E, D,C, | %86
 ^B,,/A,/G,/F,/ E,/F,/D,/E,/ | C,/D,/C,/B,,/ A,,/B,,/G,,/A,,/ | F,,D, ^E,,=E,, | %89
 D,,G,, C,,F,/4E,/4D,/4C,/4 | %90
 ^B,,/4C,/4D,/4E,/4D,/4C,/4B,,/4^A,,/4 G,,/4A,,/4B,,/4C,/4B,,/4A,,/4G,,/4F,,/4 | %91
 E,, z/4 C,,/4D,,/8E,,/8F,,/8G,,/8 B,,/4A,,/4G,,/4A,,/4B,,/4A,,/4B,,/4A,,/4 | %92
 G,,/G,/F,/E,/ D,/E,/C,/D,/ | E,2 z/ D,/C,/^B,,/ | C,2 z/ B,,/A,,/G,,/ | F,,F, G,G,, | %96
 A,,2 z/ A,/G,/F,/ | F,/D,/E,/E,/ E,/C,/D,/D,/ | C,C G,^A, | z z[K:tenor] CD | z E DC | %101
 z B,/^A,/ B,C | D4- | D=G,/E/ ^G,/D/^A,/C/ | B,/^A,/B,- B,/A,/G,/=G,/ | %105
[K:bass] G,>F, E,/D,/C,/B,,/ | ^A,,D,, ^E,,=G,, | G,,>=G,, ^G,,/B,,/^A,,/C,/ | B,,2 z ^B,, | %109
 C,G,, A,,C, | F,,/C,/F,/C,/ G,/B,/^A,/C/ | =D,/F,/E,/=G,/ ^A,,/C,/B,,/D,/ | %112
 ^E,,/G,,/F,,/A,,/ ^B,,,2 | %113
 D,,/4C,,/4D,,/4C,,/4D,,/4C,,/4D,,/4C,,/4 D,,/4C,,/4D,,/4C,,/4D,,/4C,,/4D,,/4C,,/4 | %114
 D,,/4C,,/4D,,/4C,,/4D,,/4C,,/4D,,/4C,,/4 D,,/4C,,/4D,,/4C,,/4D,,/4C,,/4D,,/4C,,/4 | %115
 D,,/4C,,/4D,,/4C,,/4D,,/4C,,/4D,,/4C,,/4 D,,/4C,,/4D,,/4C,,/4D,,/4C,,/4D,,/4C,,/4 | %116
 D,,/4C,,/4D,,/4C,,/4C,/C,/ C,/A,,/B,,/B,,/ | B,,/G,,/A,,/F,,/ C,C,, | %118
 F,,F,,/4G,,/4A,,/4B,,/4 C,B,,/4^A,,/4G,,/4F,,/4 | B,,F,,/4^E,,/4D,,/4C,,/4 F,,F,/4=E,/4D,/4C,/4 | %120
 ^B,,C,/4=B,,/4^A,,/4G,,/4 =G,,^G,,/4F,,/4E,,/4D,,/4 | C,,B,,, C,,D,, | E,,C, D,D,, | %123
 G,,/D,/G,/G,/ G,/E,/F,/F,/ | F,/D,/E,/E,/ E,/C,/A, | G,C =G,F, | E,A, D,2- | D,C,- C,>^B,, | %128
 C, z z2 | z4 | z2 G,2 | F,B, ^E,=E, | D,G, C,2 | B,,C, D,/C,/D, | G,,2 z ^A,, | %135
 B,,/^A,,/B,,/C,/ D,/C,/E,/D,/ | E,/C,/F,- F,E,/D,/ | E,G, ^E,C, | F,2 z F, | %139
 B,,/B,/A,/G,/ F,/G,/E,/F,/ |[K:tenor] G,/A,/B,/C/ D/C/E/D/ | EA, B,B,, | %142
 E,/F,/G,/A,/ B,/^A,/C/^B,/ | C/[K:bass]^A,,/^B,,/C,/ D,/C,/E,/D,/ | %144
 F,/E,/D,/C,/ ^B,,/C,/^A,,/B,,/ | C,/B,,/^A,,/G,,/ =G,,/^G,,/^E,,/=G,,/ | G,,G,- G,=G, | %147
 G,B, ^E,=G, | z G, A,B, |[K:tenor] z C B,A, | z G,/F,/ G,^A, | B,/C/B,/^A,/ G,/B,/^E/G/ | %152
 G/^E/F/F/ F/D/=E/E/ | E/=D/^D/D/ D/C/B,/^A,/ | B,/D/C/B,/ ^A,/B,/G,/A,/ | B,/C/B,/A,/ G,C | %156
 FB, A,G, | F,2[K:bass] z/ A,/G,/F,/ | E,A, D,=D, | C,F, B,,2 | A,,B,, C,/B,,/C, | F,,2 z2 | %162
 z F,/G,/ F,^B,, | C,C- C/B,/A,/G,/ | F,>E, D,/C,/^B,,/G,/ | G,>F, E,/D,/C,/B,/ | %166
 ^A,>G, =G,/^E,/D, | A,/4G,/4A,/4G,/4A,/4G,/4A,/4G,/4 A,/4G,/4A,/4G,/4A,/4G,/4A,/4G,/4 | %168
 A,/4G,/4A,/4G,/4A,/4G,/4A,/4G,/4 A,/4G,/4A,/4G,/4A,/4G,/4A,/4G,/4 | z2 C,2 | B,,E, ^A,,=A,, | %171
 G,,C, F,,2 | E,,F,, G,,/F,,/G,, | C,,C,- C,/B,,/A,,/C,/ | B,,B,- B,/A,/G,/B,/ | %175
 A,A,,- A,,/G,,/F,,/A,,/ | G,,G,- G,/F,/^E,/G,/ | F,F,/F,/ F,D,/D,/ | D,^B,,/B,,/ B,, z | %179
 z =G, ^G,G,, | C,4- | C,2 z2 | z G,, C,,D,, | z E,, F,,G,, | z A,, G,,F,, | z E,,/D,,/ E,,F,, | %186
 G,,4 | C,,2 z2 |] %188

